src/assets/vectors/signup-feedback-shield.svg

<svg width="58" height="68" viewBox="0 0 58 68" fill="none" xmlns="http://www.w3.org/2000/svg">
<path fill-rule="evenodd" clip-rule="evenodd" d="M38.6257 21.3251C38.168 20.9819 37.3671 21.0963 37.0239 21.554L27.6419 34.1396L22.9508 29.3342C22.4932 28.8765 21.8067 28.8765 21.349 29.3342C20.8914 29.7918 20.8914 30.4784 21.349 30.936L26.9553 36.6568C27.1842 36.8856 27.413 37 27.7563 37C27.7563 37 27.7562 37 27.8706 37C28.2139 37 28.4427 36.7711 28.6716 36.5423L38.8545 22.927C39.1978 22.3549 39.0834 21.6684 38.6257 21.3251Z" fill="#FF9500"/>
<path d="M56.3276 7.87476C56.3503 7.8934 56.3717 7.91115 56.3917 7.92795C56.7972 10.7126 57 13.4996 57 16.3563C57 38.2086 45.6716 57.174 28.9981 66.8486C12.3289 57.2467 1 38.2103 1 16.4321C1 13.5746 1.20285 10.7204 1.60726 8.00189C1.62873 7.98371 1.65173 7.96441 1.67626 7.94405C1.89956 7.75873 2.25033 7.48503 2.73961 7.15194C3.71788 6.48596 5.25163 5.5814 7.43006 4.671C11.7842 2.85132 18.734 1 29 1C39.2673 1 46.2183 2.83288 50.5733 4.63452C52.7521 5.53587 54.286 6.43142 55.2643 7.09069C55.7536 7.42042 56.1043 7.69135 56.3276 7.87476Z" stroke="#FF9500" stroke-width="2" stroke-linecap="round" stroke-linejoin="round"/>
</svg>

<svg width="58" height="68" fill="none" xmlns="http://www.w3.org/2000/svg"><path fill-rule="evenodd" clip-rule="evenodd" d="M38.626 21.325c-.458-.343-1.259-.229-1.602.229L27.642 34.14l-4.691-4.806a1.106 1.106 0 0 0-1.602 0 1.106 1.106 0 0 0 0 1.602l5.606 5.72c.23.23.458.344.801.344h.115c.343 0 .572-.229.8-.458l10.184-13.615c.343-.572.228-1.259-.23-1.602z" fill="#127BF3"/><path d="M56.328 7.875l.064.053c.405 2.785.608 5.572.608 8.428C57 38.21 45.672 57.174 28.998 66.85 12.328 57.247 1 38.21 1 16.432c0-2.857.203-5.712.607-8.43l.07-.058c.223-.185.573-.459 1.063-.792.978-.666 2.512-1.57 4.69-2.481C11.784 2.851 18.734 1 29 1c10.267 0 17.218 1.833 21.573 3.635 2.18.9 3.713 1.796 4.691 2.456.49.33.84.6 1.064.784z" stroke="#127BF3" stroke-width="2" stroke-linecap="round" stroke-linejoin="round"/></svg>
